src/images/crypto-icon-svg/ppt.svg

<svg xmlns="http://www.w3.org/2000/svg" width="32" height="32" viewBox="0 0 32 32">
  <g fill="none">
    <circle cx="16" cy="16" r="16" fill="#152743"/>
    <path fill="#FFF" d="M16.0488,8.31584 C14.7330368,8.31584 13.6664,7.58251824 13.6664,6.67792 C13.6664,5.77332176 14.7330368,5.04 16.0488,5.04 C17.3645632,5.04 18.4312,5.77332176 18.4312,6.67792 C18.4312,7.58251824 17.3645632,8.31584 16.0488,8.31584 Z M14.816,26.6008 L14.816,9.104 L20.128,9.104 C20.32528,9.104 20.464,9.25104 20.464,9.44752 L20.464,19.15584 C20.464,19.35232 20.32448,19.52 20.128,19.52 L17.2,19.52 L17.2,26.6008 C17.2,26.79744 17.04928,26.976 16.8528,26.976 L15.18512,26.976 C14.98864,26.976 14.816,26.79728 14.816,26.6008 Z M13.92,19.52 L11.90944,19.52 C11.71296,19.52 11.536,19.35232 11.536,19.15584 L11.536,9.44752 C11.536,9.25104 11.7128,9.104 11.90944,9.104 L13.92,9.104 L13.92,19.52 Z"/>
  </g>
</svg>

<svg xmlns="http://www.w3.org/2000/svg" width="32" height="32"><g fill="none"><circle cx="16" cy="16" r="16" fill="#152743"/><path fill="#FFF" d="M16.049 8.316c-1.316 0-2.383-.733-2.383-1.638 0-.905 1.067-1.638 2.383-1.638s2.382.733 2.382 1.638c0 .905-1.066 1.638-2.382 1.638zM14.816 26.6V9.104h5.312c.197 0 .336.147.336.344v9.708c0 .196-.14.364-.336.364H17.2v7.08c0 .197-.15.376-.347.376h-1.668a.384.384 0 0 1-.369-.375zm-.896-7.081h-2.01a.378.378 0 0 1-.374-.364V9.448c0-.197.177-.344.373-.344h2.011V19.52z"/></g></svg>
